lib/brands/icons/windows.svg

<svg xmlns="http://www.w3.org/2000/svg" fill="none" aria-hidden="true" viewBox="0 0 48 48"><g id="windows-Icon"><g id="Shape"><path fill="#00ADEF" d="M8.04883 12.5309L21.0859 10.7554L21.0916 23.3307L8.06074 23.4049L8.04883 12.5309Z"/><path fill="#00ADEF" d="M21.0798 24.7792L21.09 37.3655L8.05908 35.574L8.05835 24.6948L21.0798 24.7792Z"/><path fill="#00ADEF" d="M22.6602 10.5229L39.9463 8V23.1705L22.6602 23.3078V10.5229Z"/><path fill="#00ADEF" d="M39.9504 24.8979L39.9463 40.0001L22.6602 37.5604L22.636 24.8696L39.9504 24.8979Z"/></g></g></svg>

<svg xmlns="http://www.w3.org/2000/svg" fill="none" aria-hidden="true" viewBox="0 0 48 48"><path fill="#00ADEF" d="m8.05 12.53 13.036-1.775.006 12.576-13.03.074-.013-10.874Zm13.03 12.25.01 12.585-13.03-1.791-.001-10.88 13.021.085Zm1.58-14.257L39.948 8v15.17l-17.286.138V10.523Zm17.29 14.375L39.948 40 22.66 37.56l-.024-12.69 17.314.028Z"/></svg>
